image/values/icon-1.svg

<svg width="48" height="48" viewBox="0 0 48 48" fill="none" xmlns="http://www.w3.org/2000/svg">
<path d="M35.58 45.4804H12.42C6.94 45.4804 2.5 41.0204 2.5 35.5404V20.7204C2.5 18.0004 4.18 14.5804 6.34 12.9004L17.12 4.50042C20.36 1.98042 25.54 1.86042 28.9 4.22042L41.26 12.8804C43.64 14.5404 45.5 18.1004 45.5 21.0004V35.5604C45.5 41.0204 41.06 45.4804 35.58 45.4804ZM18.96 6.86042L8.18 15.2604C6.76 16.3804 5.5 18.9204 5.5 20.7204V35.5404C5.5 39.3604 8.6 42.4804 12.42 42.4804H35.58C39.4 42.4804 42.5 39.3804 42.5 35.5604V21.0004C42.5 19.0804 41.12 16.4204 39.54 15.3404L27.18 6.68042C24.9 5.08042 21.14 5.16042 18.96 6.86042Z" fill="#2E2E2E"/>
<path d="M15.0028 34.5009C14.6228 34.5009 14.2428 34.3609 13.9428 34.0609C13.3628 33.4809 13.3628 32.5209 13.9428 31.9409L20.3428 25.5409C20.6628 25.2209 21.0828 25.0609 21.5428 25.1009C21.9828 25.1409 22.3828 25.3809 22.6428 25.7609L24.8228 29.0409L31.9228 21.9409C32.5028 21.3609 33.4628 21.3609 34.0428 21.9409C34.6228 22.5209 34.6228 23.4809 34.0428 24.0609L25.6428 32.4609C25.3228 32.7809 24.9028 32.9409 24.4428 32.9009C24.0028 32.8609 23.6028 32.6209 23.3428 32.2409L21.1628 28.9609L16.0628 34.0609C15.7628 34.3609 15.3828 34.5009 15.0028 34.5009Z" fill="#C63031"/>
<path d="M33 28.5C32.18 28.5 31.5 27.82 31.5 27V24.5H29C28.18 24.5 27.5 23.82 27.5 23C27.5 22.18 28.18 21.5 29 21.5H33C33.82 21.5 34.5 22.18 34.5 23V27C34.5 27.82 33.82 28.5 33 28.5Z" fill="#C63031"/>
</svg>

<svg xmlns="http://www.w3.org/2000/svg" width="48" height="48" fill="none"><path fill="#2E2E2E" d="M35.58 45.48H12.42c-5.48 0-9.92-4.46-9.92-9.94V20.72c0-2.72 1.68-6.14 3.84-7.82l10.78-8.4c3.24-2.52 8.42-2.64 11.78-.28l12.36 8.66c2.38 1.66 4.24 5.22 4.24 8.12v14.56c0 5.46-4.44 9.92-9.92 9.92ZM18.96 6.86l-10.78 8.4c-1.42 1.12-2.68 3.66-2.68 5.46v14.82c0 3.82 3.1 6.94 6.92 6.94h23.16c3.82 0 6.92-3.1 6.92-6.92V21c0-1.92-1.38-4.58-2.96-5.66L27.18 6.68c-2.28-1.6-6.04-1.52-8.22.18Z"/><path fill="#C63031" d="M15.003 34.5c-.38 0-.76-.14-1.06-.44-.58-.58-.58-1.54 0-2.12l6.4-6.4a1.482 1.482 0 0 1 2.3.22l2.18 3.28 7.1-7.1c.58-.58 1.54-.58 2.12 0 .58.58.58 1.54 0 2.12l-8.4 8.4a1.482 1.482 0 0 1-2.3-.22l-2.18-3.28-5.1 5.1c-.3.3-.68.44-1.06.44Z"/><path fill="#C63031" d="M33 28.5c-.82 0-1.5-.68-1.5-1.5v-2.5H29c-.82 0-1.5-.68-1.5-1.5s.68-1.5 1.5-1.5h4c.82 0 1.5.68 1.5 1.5v4c0 .82-.68 1.5-1.5 1.5Z"/></svg>
